icons/unarchive.svg

<svg fill="none" stroke="currentColor" stroke-linecap="round" stroke-linejoin="round" stroke-width="1.5" viewBox="0 0 24 24"><path d="m20.25 7.5-.625 10.632a2.26 2.26 0 0 1-2.247 2.118H6.622a2.26 2.26 0 0 1-2.247-2.118L3.75 7.5M12 17.25V10.5m0 0-3 3m3-3 3 3m-11.625-6h17.25c.621 0 1.125-.504 1.125-1.125v-1.5c0-.621-.504-1.125-1.125-1.125H3.375c-.621 0-1.125.504-1.125 1.125v1.5c0 .621.504 1.125 1.125 1.125"/></svg>

<svg width="24" height="24" xmlns="http://www.w3.org/2000/svg" clip-rule="evenodd" viewBox="0 0 24 24"><title>unarchive</title><g stroke-linejoin="round" class="nc-icon-wrapper" fill="#ffffff" stroke-linecap="round" fill-rule="evenodd"><path d="M20.25,7.5L19.625,18.132C19.555,19.315 18.563,20.25 17.378,20.25L6.622,20.25C5.437,20.25 4.445,19.315 4.375,18.132L3.75,7.5M12,17.25L12,10.5M12,10.5L9,13.5M12,10.5L15,13.5M3.375,7.5L20.625,7.5C21.246,7.5 21.75,6.996 21.75,6.375L21.75,4.875C21.75,4.254 21.246,3.75 20.625,3.75L3.375,3.75C2.754,3.75 2.25,4.254 2.25,4.875L2.25,6.375C2.25,6.996 2.754,7.5 3.375,7.5Z" fill="none" fill-rule="nonzero" stroke="#ffffff" stroke-width="1.5"></path></g></svg>
